;FLAVOR:Marlin
;TIME:977
;Filament used: 0.649718m
;Layer height: 0.2
;MINX:120.185
;MINY:131.459
;MINZ:0.2
;MAXX:179.815
;MAXY:168.541
;MAXZ:6
;Generated with Cura_SteamEngine 4.8.0
M140 S50
M105
M190 S50
M104 S200
M105
M109 S200
M82 ;absolute extrusion mode
M201 X500.00 Y500.00 Z100.00 E5000.00 ;Setup machine max acceleration
M203 X500.00 Y500.00 Z10.00 E50.00 ;Setup machine max feedrate
M204 P500.00 R1000.00 T500.00 ;Setup Print/Retract/Travel acceleration
M205 X8.00 Y8.00 Z0.40 E5.00 ;Setup Jerk
M220 S100 ;Reset Feedrate
M221 S100 ;Reset Flowrate

G28 ;Home

G92 E0 ;Reset Extruder
G1 Z2.0 F3000 ;Move Z Axis up
G1 X10.1 Y20 Z0.28 F5000.0 ;Move to start position
G1 X10.1 Y200.0 Z0.28 F1500.0 E15 ;Draw the first line
G1 X10.4 Y200.0 Z0.28 F5000.0 ;Move to side a little
G1 X10.4 Y20 Z0.28 F1500.0 E30 ;Draw the second line
G92 E0 ;Reset Extruder
G1 Z2.0 F3000 ;Move Z Axis up

G92 E0
G92 E0
G1 F2700 E-5
;LAYER_COUNT:30
;LAYER:0
M107
G0 F6000 X124.74 Y135.346 Z0.2
;TYPE:SKIRT
G1 F2700 E0
G1 F1200 X125.401 Y134.734 E0.02996
G1 X125.81 Y134.398 E0.04757
G1 X125.98 Y134.265 E0.05475
G1 X126.95 Y133.587 E0.09411
G1 X127.143 Y133.467 E0.10167
G1 X128.091 Y132.941 E0.13773
G1 X128.426 Y132.776 E0.15015
G1 X129.325 Y132.382 E0.18279
G1 X129.896 Y132.176 E0.20298
G1 X130.096 Y132.11 E0.20999
G1 X130.701 Y131.929 E0.23099
G1 X130.787 Y131.906 E0.23395
G1 X131.296 Y131.783 E0.25137
G1 X131.508 Y131.737 E0.25858
G1 X132.692 Y131.547 E0.29847
G1 X132.93 Y131.522 E0.30643
G1 X133.941 Y131.463 E0.34011
G1 X134.26 Y131.459 E0.35072
G1 X134.646 Y131.461 E0.36356
G1 X134.943 Y131.47 E0.37344
G1 X135.735 Y131.506 E0.39981
G1 X166.482 Y133.318 E1.42423
G1 X167.25 Y133.374 E1.44985
G1 X167.853 Y133.435 E1.47
G1 X168.063 Y133.462 E1.47705
G1 X168.965 Y133.616 E1.50748
G1 X169.384 Y133.712 E1.52178
G1 X169.608 Y133.768 E1.52946
G1 X170.452 Y134.016 E1.55872
G1 X170.636 Y134.078 E1.56517
G1 X171.747 Y134.521 E1.60496
G1 X172.127 Y134.697 E1.61888
G1 X173.112 Y135.215 E1.6559
G1 X173.525 Y135.469 E1.67203
G1 X173.7 Y135.582 E1.67895
G1 X174.686 Y136.299 E1.7195
G1 X174.914 Y136.485 E1.72929
G1 X175.795 Y137.287 E1.76891
G1 X176.001 Y137.496 E1.77868
G1 X176.552 Y138.098 E1.80582
G1 X176.863 Y138.477 E1.82212
G1 X176.991 Y138.64 E1.82902
G1 X177.676 Y139.617 E1.8687
G1 X177.795 Y139.808 E1.87619
G1 X178.309 Y140.728 E1.91124
G1 X178.483 Y141.078 E1.92424
G1 X178.814 Y141.81 E1.95096
G1 X178.832 Y141.854 E1.95254
G1 X179.097 Y142.571 E1.97797
G1 X179.165 Y142.777 E1.98518
G1 X179.427 Y143.708 E2.01735
G1 X179.49 Y143.976 E2.02651
G1 X179.699 Y145.146 E2.06604
G1 X179.727 Y145.373 E2.07364
G1 X179.809 Y146.562 E2.11328
G1 X179.815 Y146.981 E2.12722
G1 X179.805 Y147.638 E2.14908
G1 X179.768 Y148.425 E2.17528
G1 X179.38 Y155.002 E2.39441
G1 X179.308 Y155.99 E2.42736
G1 X179.226 Y156.751 E2.45282
G1 X179.19 Y157.001 E2.46122
G1 X178.979 Y158.079 E2.49775
G1 X178.922 Y158.309 E2.50563
G1 X178.688 Y159.12 E2.53371
G1 X178.639 Y159.268 E2.53889
G1 X178.165 Y160.461 E2.58159
G1 X177.991 Y160.834 E2.59528
G1 X177.481 Y161.799 E2.63158
G1 X177.313 Y162.082 E2.64253
G1 X176.8 Y162.867 E2.67372
G1 X176.448 Y163.333 E2.69314
G1 X176.305 Y163.512 E2.70076
G1 X175.521 Y164.392 E2.73996
G1 X175.277 Y164.638 E2.75149
G1 X174.524 Y165.33 E2.7855
G1 X174.19 Y165.602 E2.79983
G1 X174.02 Y165.735 E2.80701
G1 X173.05 Y166.413 E2.84637
G1 X172.857 Y166.533 E2.85393
G1 X171.91 Y167.059 E2.88996
G1 X171.571 Y167.226 E2.90253
G1 X170.659 Y167.625 E2.93564
G1 X170.105 Y167.824 E2.95522
G1 X169.905 Y167.89 E2.96222
G1 X169.269 Y168.079 E2.98429
G1 X169.182 Y168.102 E2.98728
G1 X168.704 Y168.217 E3.00363
G1 X168.492 Y168.263 E3.01085
G1 X167.308 Y168.453 E3.05073
G1 X167.07 Y168.478 E3.05869
G1 X166.059 Y168.537 E3.09237
G1 X165.74 Y168.541 E3.10299
G1 X165.14 Y168.532 E3.12294
G1 X164.265 Y168.494 E3.15207
G1 X133.518 Y166.682 E4.1765
G1 X132.75 Y166.626 E4.20211
G1 X132.129 Y166.563 E4.22287
G1 X131.914 Y166.535 E4.23008
G1 X131.058 Y166.389 E4.25896
G1 X130.626 Y166.29 E4.2737
G1 X130.405 Y166.235 E4.28128
G1 X129.533 Y165.98 E4.3115
G1 X129.347 Y165.917 E4.31803
G1 X128.251 Y165.479 E4.35728
G1 X127.869 Y165.302 E4.37129
G1 X126.861 Y164.769 E4.40921
G1 X126.486 Y164.538 E4.42386
G1 X126.309 Y164.424 E4.43086
G1 X125.304 Y163.693 E4.4722
G1 X125.085 Y163.514 E4.4816
G1 X124.25 Y162.757 E4.51909
G1 X124.036 Y162.542 E4.52918
G1 X123.368 Y161.808 E4.56219
G1 X123.094 Y161.468 E4.57671
G1 X122.963 Y161.299 E4.58382
G1 X122.354 Y160.43 E4.61912
G1 X122.236 Y160.243 E4.62647
G1 X121.667 Y159.226 E4.66523
G1 X121.492 Y158.87 E4.67843
G1 X121.115 Y158.011 E4.70963
G1 X120.95 Y157.559 E4.72563
G1 X120.866 Y157.312 E4.73431
G1 X120.639 Y156.557 E4.76053
G1 X120.617 Y156.473 E4.76342
G1 X120.487 Y155.918 E4.78238
G1 X120.441 Y155.696 E4.78992
G1 X120.291 Y154.777 E4.82089
G1 X120.269 Y154.594 E4.82702
G1 X120.191 Y153.436 E4.86562
G1 X120.185 Y153.011 E4.87976
G1 X120.196 Y152.353 E4.90165
G1 X120.232 Y151.574 E4.92758
G1 X120.633 Y144.809 E5.15298
G1 X120.694 Y143.985 E5.18047
G1 X120.794 Y143.108 E5.20982
G1 X120.833 Y142.857 E5.21827
G1 X121.028 Y141.89 E5.25108
G1 X121.08 Y141.681 E5.25825
G1 X121.312 Y140.88 E5.28598
G1 X121.361 Y140.732 E5.29117
G1 X121.841 Y139.527 E5.33431
G1 X122.016 Y139.153 E5.34804
G1 X122.52 Y138.2 E5.3839
G1 X122.688 Y137.917 E5.39484
G1 X123.201 Y137.132 E5.42603
G1 X123.567 Y136.649 E5.44619
G1 X123.713 Y136.467 E5.45395
G1 X124.499 Y135.588 E5.49317
G1 X124.74 Y135.346 E5.50453
G0 F6000 X125.023 Y135.628
G1 F1200 X125.66 Y135.039 E5.53339
G1 X126.056 Y134.713 E5.55045
G1 X126.226 Y134.58 E5.55762
G1 X127.161 Y133.927 E5.59556
G1 X127.354 Y133.807 E5.60311
G1 X128.267 Y133.3 E5.63785
G1 X128.602 Y133.135 E5.65027
G1 X129.469 Y132.755 E5.68175
G1 X130.021 Y132.556 E5.70127
G1 X130.221 Y132.49 E5.70828
G1 X130.804 Y132.316 E5.72851
G1 X130.89 Y132.293 E5.73147
G1 X131.381 Y132.174 E5.74828
G1 X131.593 Y132.128 E5.75549
G1 X132.734 Y131.945 E5.79393
G1 X132.972 Y131.92 E5.80189
G1 X133.946 Y131.863 E5.83434
G1 X134.265 Y131.859 E5.84495
G1 X134.639 Y131.861 E5.85739
G1 X134.925 Y131.869 E5.8669
G1 X135.711 Y131.905 E5.89307
G1 X166.453 Y133.717 E6.91733
G1 X167.221 Y133.773 E6.94294
G1 X167.802 Y133.832 E6.96236
G1 X168.012 Y133.859 E6.96941
G1 X168.881 Y134.007 E6.99873
G1 X169.287 Y134.1 E7.01258
G1 X169.511 Y134.156 E7.02026
G1 X170.325 Y134.395 E7.04848
G1 X170.509 Y134.457 E7.05493
G1 X171.579 Y134.884 E7.09325
G1 X171.959 Y135.06 E7.10718
G1 X172.908 Y135.559 E7.14284
G1 X173.308 Y135.805 E7.15846
G1 X173.483 Y135.918 E7.16539
G1 X174.434 Y136.609 E7.20449
G1 X174.662 Y136.795 E7.21427
G1 X175.51 Y137.568 E7.25244
G1 X175.716 Y137.777 E7.2622
G1 X176.247 Y138.357 E7.28835
G1 X176.549 Y138.724 E7.30416
G1 X176.677 Y138.887 E7.31105
G1 X177.337 Y139.829 E7.34931
G1 X177.456 Y140.02 E7.35679
G1 X177.951 Y140.906 E7.39055
G1 X178.125 Y141.256 E7.40355
G1 X178.444 Y141.961 E7.42929
G1 X178.462 Y142.005 E7.43087
G1 X178.717 Y142.696 E7.45537
G1 X178.785 Y142.902 E7.46258
G1 X179.038 Y143.799 E7.49358
G1 X179.101 Y144.067 E7.50274
G1 X179.302 Y145.195 E7.54085
G1 X179.33 Y145.422 E7.54845
G1 X179.409 Y146.568 E7.58666
G1 X179.415 Y146.987 E7.6006
G1 X179.405 Y147.62 E7.62165
G1 X179.369 Y148.401 E7.64766
G1 X178.981 Y154.978 E7.86679
G1 X178.909 Y155.961 E7.89957
G1 X178.83 Y156.694 E7.92409
G1 X178.794 Y156.944 E7.93249
G1 X178.591 Y157.983 E7.9677
G1 X178.534 Y158.213 E7.97558
G1 X178.308 Y158.995 E8.00266
G1 X178.259 Y159.143 E8.00784
G1 X177.802 Y160.292 E8.04897
G1 X177.628 Y160.665 E8.06266
G1 X177.137 Y161.595 E8.09764
G1 X176.969 Y161.878 E8.10859
G1 X176.465 Y162.648 E8.13919
G1 X176.136 Y163.083 E8.15733
G1 X175.993 Y163.262 E8.16495
G1 X175.237 Y164.111 E8.20276
G1 X174.993 Y164.357 E8.21429
G1 X174.267 Y165.023 E8.24706
G1 X173.944 Y165.287 E8.26093
G1 X173.774 Y165.42 E8.26811
G1 X172.839 Y166.073 E8.30604
G1 X172.646 Y166.193 E8.3136
G1 X171.733 Y166.7 E8.34834
G1 X171.394 Y166.867 E8.3609
G1 X170.515 Y167.251 E8.39281
G1 X169.98 Y167.444 E8.41173
G1 X169.78 Y167.51 E8.41873
G1 X169.167 Y167.692 E8.44
G1 X169.08 Y167.715 E8.44299
G1 X168.619 Y167.826 E8.45876
G1 X168.407 Y167.872 E8.46598
G1 X167.266 Y168.055 E8.50441
G1 X167.028 Y168.08 E8.51237
G1 X166.054 Y168.137 E8.54482
G1 X165.735 Y168.141 E8.55543
G1 X165.157 Y168.133 E8.57466
G1 X164.289 Y168.095 E8.60356
G1 X133.547 Y166.283 E9.62781
G1 X132.779 Y166.227 E9.65343
G1 X132.181 Y166.166 E9.67342
G1 X131.966 Y166.138 E9.68063
G1 X131.141 Y165.998 E9.70846
G1 X130.723 Y165.902 E9.72273
G1 X130.502 Y165.847 E9.7303
G1 X129.661 Y165.601 E9.75945
G1 X129.475 Y165.538 E9.76598
G1 X128.42 Y165.116 E9.80377
G1 X128.038 Y164.939 E9.81777
G1 X127.066 Y164.426 E9.85433
G1 X126.702 Y164.202 E9.86854
G1 X126.525 Y164.088 E9.87555
G1 X125.557 Y163.383 E9.91538
G1 X125.338 Y163.204 E9.92478
G1 X124.533 Y162.475 E9.9609
G1 X124.319 Y162.26 E9.97099
G1 X123.676 Y161.553 E10.00278
G1 X123.41 Y161.223 E10.01688
G1 X123.279 Y161.054 E10.02399
G1 X122.693 Y160.217 E10.05797
G1 X122.575 Y160.03 E10.06533
G1 X122.026 Y159.049 E10.10272
G1 X121.851 Y158.693 E10.11591
G1 X121.328 Y157.43 E10.16138
G1 X121.244 Y157.183 E10.17005
G1 X121.026 Y156.456 E10.1953
G1 X121.004 Y156.372 E10.19819
G1 X120.878 Y155.837 E10.21647
G1 X120.832 Y155.615 E10.22401
G1 X120.688 Y154.729 E10.25386
G1 X120.666 Y154.546 E10.25999
G1 X120.591 Y153.431 E10.29716
G1 X120.585 Y153.006 E10.3113
G1 X120.595 Y152.371 E10.33242
G1 X120.631 Y151.598 E10.35816
G1 X121.021 Y144.996 E10.57813
G1 X121.093 Y144.014 E10.61088
G1 X121.19 Y143.17 E10.63913
G1 X121.229 Y142.919 E10.64758
G1 X121.417 Y141.987 E10.6792
G1 X121.469 Y141.778 E10.68637
G1 X121.692 Y141.005 E10.71313
G1 X121.741 Y140.857 E10.71831
G1 X122.203 Y139.697 E10.75984
G1 X122.378 Y139.323 E10.77357
G1 X122.864 Y138.404 E10.80815
G1 X123.032 Y138.121 E10.8191
G1 X123.536 Y137.351 E10.84971
G1 X123.879 Y136.899 E10.86858
G1 X124.025 Y136.717 E10.87634
G1 X124.782 Y135.87 E10.91412
G1 X125.023 Y135.628 E10.92548
G0 F6000 X125.307 Y135.91
G1 F1200 X125.92 Y135.343 E10.95325
G1 X126.303 Y135.028 E10.96975
G1 X126.473 Y134.895 E10.97693
G1 X127.372 Y134.267 E11.0134
G1 X127.565 Y134.147 E11.02096
G1 X128.444 Y133.659 E11.0544
G1 X128.779 Y133.494 E11.06682
G1 X129.613 Y133.128 E11.09711
G1 X129.67 Y133.106 E11.09914
G1 X130.147 Y132.936 E11.11599
G1 X130.347 Y132.87 E11.12299
G1 X130.908 Y132.702 E11.14247
G1 X130.994 Y132.679 E11.14543
G1 X131.466 Y132.565 E11.16158
G1 X131.678 Y132.519 E11.16879
G1 X132.775 Y132.343 E11.20575
G1 X133.013 Y132.318 E11.21371
G1 X133.951 Y132.263 E11.24496
G1 X134.27 Y132.259 E11.25557
G1 X134.632 Y132.261 E11.26761
G1 X134.907 Y132.269 E11.27676
G1 X135.688 Y132.305 E11.30276
G1 X166.424 Y134.116 E12.32682
G1 X167.192 Y134.172 E12.35243
G1 X167.751 Y134.228 E12.37112
G1 X167.961 Y134.255 E12.37816
G1 X168.797 Y134.398 E12.40637
G1 X169.19 Y134.489 E12.41979
G1 X169.414 Y134.545 E12.42746
G1 X170.197 Y134.774 E12.4546
G1 X170.381 Y134.836 E12.46106
G1 X171.411 Y135.247 E12.49794
G1 X171.791 Y135.423 E12.51187
G1 X172.704 Y135.903 E12.54618
G1 X173.091 Y136.141 E12.56129
G1 X173.266 Y136.254 E12.56822
G1 X174.181 Y136.919 E12.60584
G1 X174.409 Y137.105 E12.61562
G1 X175.225 Y137.849 E12.65235
G1 X175.431 Y138.058 E12.66211
G1 X175.942 Y138.616 E12.68728
G1 X176.234 Y138.971 E12.70257
G1 X176.362 Y139.134 E12.70946
G1 X176.997 Y140.04 E12.74626
G1 X177.116 Y140.231 E12.75374
G1 X177.593 Y141.084 E12.78625
G1 X177.767 Y141.434 E12.79925
G1 X178.074 Y142.113 E12.82403
G1 X178.092 Y142.157 E12.82561
G1 X178.337 Y142.822 E12.84919
G1 X178.405 Y143.028 E12.8564
G1 X178.648 Y143.891 E12.88622
G1 X178.711 Y144.159 E12.89538
G1 X178.905 Y145.244 E12.93204
G1 X178.933 Y145.471 E12.93964
G1 X179.009 Y146.574 E12.97642
G1 X179.015 Y146.993 E12.99035
G1 X179.005 Y147.602 E13.01061
G1 X178.969 Y148.378 E13.03645
G1 X178.571 Y155.103 E13.26052
G1 X178.51 Y155.932 E13.28816
G1 X178.434 Y156.637 E13.31175
G1 X178.398 Y156.887 E13.32015
G1 X178.202 Y157.887 E13.35404
G1 X178.145 Y158.117 E13.36192
G1 X177.928 Y158.869 E13.38795
G1 X177.879 Y159.017 E13.39314
G1 X177.44 Y160.123 E13.43272
G1 X177.266 Y160.496 E13.44641
G1 X176.793 Y161.391 E13.48008
G1 X176.625 Y161.674 E13.49102
G1 X176.13 Y162.429 E13.52105
G1 X175.823 Y162.833 E13.53793
G1 X175.68 Y163.012 E13.54555
G1 X174.953 Y163.829 E13.58192
G1 X174.709 Y164.075 E13.59344
G1 X174.011 Y164.716 E13.62496
G1 X173.697 Y164.972 E13.63844
G1 X173.527 Y165.105 E13.64562
G1 X172.628 Y165.733 E13.68209
G1 X172.435 Y165.853 E13.68965
G1 X171.557 Y166.341 E13.72306
G1 X171.218 Y166.508 E13.73563
G1 X170.372 Y166.878 E13.76634
G1 X169.854 Y167.064 E13.78465
G1 X169.654 Y167.13 E13.79165
G1 X169.065 Y167.305 E13.81209
G1 X168.978 Y167.328 E13.81508
G1 X168.534 Y167.435 E13.83027
G1 X168.322 Y167.481 E13.83749
G1 X167.225 Y167.657 E13.87444
G1 X166.987 Y167.682 E13.8824
G1 X166.049 Y167.737 E13.91365
G1 X165.73 Y167.741 E13.92426
G1 X165.174 Y167.733 E13.94276
G1 X164.484 Y167.704 E13.96573
G1 X133.718 Y165.893 E14.99078
G1 X132.808 Y165.828 E15.02112
G1 X132.233 Y165.77 E15.04034
G1 X132.018 Y165.742 E15.04756
G1 X131.224 Y165.606 E15.07435
G1 X130.82 Y165.514 E15.08813
G1 X130.599 Y165.459 E15.0957
G1 X129.79 Y165.222 E15.12374
G1 X129.604 Y165.159 E15.13027
G1 X128.588 Y164.753 E15.16667
G1 X128.206 Y164.576 E15.18067
G1 X127.271 Y164.082 E15.21584
G1 X126.919 Y163.865 E15.22959
G1 X126.742 Y163.751 E15.2366
G1 X125.81 Y163.074 E15.27491
G1 X125.591 Y162.895 E15.28432
G1 X124.817 Y162.193 E15.31907
G1 X124.603 Y161.978 E15.32916
G1 X123.984 Y161.297 E15.35977
G1 X123.726 Y160.978 E15.37342
G1 X123.595 Y160.809 E15.38053
G1 X123.031 Y160.003 E15.41325
G1 X122.913 Y159.816 E15.4206
G1 X122.385 Y158.873 E15.45655
G1 X122.21 Y158.517 E15.46974
G1 X121.707 Y157.301 E15.51351
G1 X121.623 Y157.054 E15.52219
G1 X121.413 Y156.354 E15.54649
G1 X121.391 Y156.27 E15.54938
G1 X121.27 Y155.756 E15.56694
G1 X121.224 Y155.534 E15.57449
G1 X121.085 Y154.681 E15.60323
G1 X121.063 Y154.498 E15.60936
G1 X120.991 Y153.425 E15.64513
G1 X120.985 Y153 E15.65927
G1 X120.995 Y152.389 E15.67959
G1 X121.031 Y151.622 E15.70513
G1 X121.431 Y144.868 E15.93016
G1 X121.492 Y144.044 E15.95764
G1 X121.585 Y143.231 E15.98486
G1 X121.624 Y142.98 E15.99331
G1 X121.805 Y142.083 E16.02374
G1 X121.857 Y141.874 E16.03091
G1 X122.072 Y141.131 E16.05663
G1 X122.121 Y140.983 E16.06182
G1 X122.565 Y139.866 E16.1018
G1 X122.74 Y139.492 E16.11553
G1 X123.208 Y138.608 E16.1488
G1 X123.376 Y138.325 E16.15975
G1 X123.871 Y137.57 E16.18977
G1 X124.191 Y137.149 E16.20736
G1 X124.337 Y136.967 E16.21512
G1 X125.066 Y136.152 E16.25149
G1 X125.307 Y135.91 E16.26285
G1 F2700 E11.26285
;MESH:PID_motor_shaft v2.stl
G0 F6000 X135.745 Y147.801
G0 X134.527 Y147.002
G0 X134.195 Y149.258
G0 X134.338 Y150.336
G0 X134.783 Y151.333
G0 X135.486 Y152.163
G0 X136.396 Y152.761
G0 X137.242 Y153.017
G0 X138.432 Y153.257
;TYPE:WALL-INNER
G1 F2700 E16.26285
G1 F1200 X138.469 Y153.264 E16.2641
G1 X138.923 Y153.179 E16.27947
G1 X139.288 Y153.077 E16.29207
G1 X139.641 Y152.939 E16.30468
G1 X139.982 Y152.768 E16.31736
G1 X140.302 Y152.565 E16.32997
G1 X140.602 Y152.334 E16.34256
G1 X140.879 Y152.075 E16.35517
G1 X141.13 Y151.792 E16.36776
G1 X141.355 Y151.484 E16.38044
G1 X141.547 Y151.156 E16.39308
G1 X141.707 Y150.814 E16.40564
G1 X141.836 Y150.456 E16.4183
G1 X141.928 Y150.088 E16.43091
G1 X141.987 Y149.713 E16.44354
G1 X142.007 Y149.334 E16.45616
G1 X141.995 Y148.956 E16.46874
G1 X141.943 Y148.579 E16.4814
G1 X141.859 Y148.211 E16.49395
G1 X141.738 Y147.85 E16.50662
G1 X141.583 Y147.502 E16.51929
G1 X141.395 Y147.172 E16.53192
G1 X141.18 Y146.861 E16.5445
G1 X140.933 Y146.571 E16.55717
G1 X140.661 Y146.307 E16.56977
G1 X140.365 Y146.069 E16.58241
G1 X140.047 Y145.862 E16.59503
G1 X139.713 Y145.685 E16.6076
G1 X139.362 Y145.54 E16.62023
G1 X138.999 Y145.429 E16.63285
G1 X138.627 Y145.353 E16.64548
G1 X138.248 Y145.314 E16.65816
G1 X137.869 Y145.311 E16.67076
G1 X137.611 Y145.334 E16.67938
G1 X137.576 Y145.327 E16.68056
G1 X137.119 Y145.411 E16.69602
